packages/ui-icons/src/Basic/24/Block_number_24.svg

<svg xmlns="http://www.w3.org/2000/svg" viewBox="0 0 32 32"><path d="M21 24h2v-1.89a1.5 1.5 0 1 0-2 0Z"/><path d="M28 16h-1v-2a5 5 0 0 0-3-4.58V4H12.46L6 11.55V28h16a6 6 0 0 0 6-6Zm-3-2v2h-6v-2a3 3 0 0 1 6 0ZM8 26V12.29L13.38 6H22v3a5 5 0 0 0-5 5v2h-1v6a6 6 0 0 0 1.54 4Zm18-4a4 4 0 0 1-8 0v-4h8Z"/></svg>

<svg id="Ready" xmlns="http://www.w3.org/2000/svg" viewBox="0 0 32 32"><title>Megaicons_work_24_1.8_cp</title><path d="M21,24h2V22.11a1.5,1.5,0,1,0-2,0Z"/><path d="M28,16H27V14a5,5,0,0,0-3-4.58V4H12.46L6,11.55V28H22a6,6,0,0,0,6-6Zm-3-2v2H19V14a3,3,0,0,1,6,0ZM8,26V12.29L13.38,6H22V9a5,5,0,0,0-5,5v2H16v6a6,6,0,0,0,1.54,4Zm18-4a4,4,0,0,1-8,0V18h8Z"/></svg>
